X: 1297
T: Kürdîlihicazkâr Peşrev
C: Vasilâki
O: Turkey
F: http://compmusic.upf.edu/node/140
N: kurdilihicazkar--pesrev--agirduyek----vasilaki
N: makam= kurdilihicazkar
N: form= pesrev
N: usul= agirduyek = 8/4
M: 8/4
L: 1/16
K: C _B _e _A 
Q: 1/4=72
%%MIDI tuningsystem comma53
f4 g4 g2a2 g2f2 g3f e2f2 gbag g4  | \
w:  1. HANE  | 
z2ga c'2b2 a2g2 f2e2 f2g4gf feed e2f2  | 
w:   | 
e4 f2g2 agab g2f2 g3f e2d2 fedc d4  | \
w:   | 
z2g2 f2e2 d3c cedc cBcd B2A2 G2F2 c4  | 
w:   | 
z4 d3e f2g2 a2g2 f2e2 d2c2 fedc B4  | \
w:   | 
cde4ed d3c gfed d2c4B2 c2{e}dc c4  | 
w:   | 
Bdcd BAGF G3A B2c2 defg fedc cBB=A B4  | 
w:  TESLİM  | 
z2fe eddc cBBA AGGF GABc f=e_7/8dc cBB=A Bd2c  | 
w:   | 
B4 c2d2 e2g2 f2e2 d2c4d2 B2A2 G2F2  | \
w:   | 
edc4BA GAB4AG G6=ab ag^fg a4  | 
w:  2. HANEYE  | 
z4 b=ag^f g4 a4 babc' a2g2 f3e d4  | \
w:   | 
z4 edc_1/4B c2d2 e2^f2 g2=a_1/4b c'2_ba aggf g4  | 
w:   | 
z4 f2gf e3f g3a b3a g2f2 gfed c4  | \
w:   | 
d2ef edc2 dcBc dedc c3d e2f2 g3f e2g2  | 
w:   | 
f2e2 d2c2 dcB=A B4 F2B2 cBc2 d2_1/4e2 f2g2  | \
w:   | 
bagf fedc cBAG FGAB c6B2 c2dc c4  | 
w:   | 
Bdcd BAGF G3A B2c2 defg fedc cBB=A B4  | 
w:  TESLİM  | 
z2fe eddc cBBA AGGF GABc f=e_7/8dc cBB=A Bd2c  | 
w:   | 
B4 c2d2 e2g2 f2e2 d2c4d2 B2A2 G2F2  | \
w:   | 
ABc4BA (3AGAB4AG G6^fe d^cBc d4  | 
w:  3. HANEYE  | 
d4 ^c2d2 e^fe2 d2=c2 B2c2 B2A2 B3A G4  | \
w:  3. HANE  | 
z2f2 =e2^d2 c2d2 e2f2 g2a2 gfef g2ag g4  | 
w:   | 
z4 (3g2a2=a2 b3_a g2f2 (3a2g2f2 (3e2d2c2 edcB =A^GA2  | 
w:   | 
z2fe eddc cBcd efdc =efga gfe_7/8d edc_1/4B c4  | 
w:   | 
z4 d2e2 e2ed e2f2 g3f e2d2 gfed c4  | \
w:   | 
Bcd4cB c2de gfed d2cd c2B2 c2dc c4  | 
w:   | 
Bdcd BAGF G3A B2c2 defg fedc cBB=A B4  | 
w:  TESLİM  | 
z2fe eddc cBBA AGGF GABc f=e_7/8dc cBB=A Bd2c  | 
w:   | 
B4 c2d2 e2g2 f2e2 d2c4d2 B2A2 G2F2  | \
w:   | 
ABc4BA (3AGAB4AG G6b2 =abc'a b4  | 
w:  4. HANEYE  | 
z4 (3b2=a2^g2 a3b c'3b a3=g ^f3e agfe d4  | \
w:   | 
z4 d2g4=a2 b3a g2a2 b2c'2 d'2c'b b4  | 
w:   | 
z4 b2a2 g2f2 e2d2 (3a2g2f2 (3e2d2c2 fedc B4  | \
w:   | 
z2f4ed e3f g3f (3a2g2f2 edeg fed^c d4  | 
w:   | 
z2e4ed d3c c4 z2f4ag fedc B4  | z2g2 f2e2 d3c c2dc c6B2 c2dc c4  | 
w:   |   | 
Bdcd BAGF G3A B2c2 defg fedc cBB=A B4  | 
w:  TESLİM  | 
z2fe eddc cBBA AGGF GABc f=e_7/8dc cBB=A Bd2c  | 
w:   | 
B4 c2d2 e2g2 f2e2 d2c4d2 B2A2 G2F2  | \
w:   | 
ABc4BA (3AGAB4AG G12 z4  | 
w:  KARAR  | 
|


